public/logo.svg

<?xml version="1.0" encoding="UTF-8" standalone="no"?><!DOCTYPE svg PUBLIC "-//W3C//DTD SVG 1.1//EN" "http://www.w3.org/Graphics/SVG/1.1/DTD/svg11.dtd"><svg width="100%" height="100%" viewBox="0 0 2238 924" version="1.1" xmlns="http://www.w3.org/2000/svg" xmlns:xlink="http://www.w3.org/1999/xlink" xml:space="preserve" xmlns:serif="http://www.serif.com/" style="fill-rule:evenodd;clip-rule:evenodd;stroke-linejoin:round;stroke-miterlimit:2;"><rect id="Artboard1" x="0" y="0" width="2237.157" height="924" style="fill:none;"/><g><path d="M1053.958,230.679l0,14.722l38.533,0l0,33.928l-38.533,0l0,152.23l-44.045,0l0,-152.23l-27.456,0l0,-33.928l27.456,0l0,-17.601c0,-12.551 2.625,-22.921 7.876,-31.302c5.189,-8.329 12.167,-14.53 21.002,-18.63c8.835,-4.099 18.56,-6.21 29.314,-6.21c7.623,0 14.339,0.637 20.296,1.858c5.887,1.212 10.239,2.303 13.056,3.262l-8.704,33.928c-1.858,-0.576 -4.221,-1.151 -7.047,-1.727c-2.808,-0.645 -6.009,-0.959 -9.463,-0.959c-8.137,0 -13.894,1.98 -17.287,5.887c-3.332,3.907 -4.998,9.542 -4.998,16.772" style="fill:#fff;fill-rule:nonzero;"/><path d="M1230.606,369.613c-2.817,9.577 -7.884,16.894 -14.644,22.528c-6.759,5.067 -14.644,7.884 -24.779,7.884c-10.143,0 -18.586,-2.817 -24.779,-7.884c-6.759,-5.634 -11.827,-12.952 -15.211,-22.528c-3.375,-9.01 -5.067,-19.153 -5.067,-30.413c0,-11.269 1.692,-21.961 5.067,-30.98c3.384,-9.577 8.451,-16.894 15.211,-21.961c6.192,-5.634 14.635,-8.451 24.779,-8.451c10.135,0 18.019,2.817 24.779,8.451c6.759,5.067 11.827,12.385 14.644,21.961c3.375,9.018 5.067,19.711 5.067,30.98c0,11.26 -1.692,21.403 -5.067,30.413m38.864,-81.104c-7.326,-14.077 -18.028,-25.345 -30.98,-33.797c-13.519,-7.876 -29.288,-11.818 -47.307,-11.818c-18.586,0 -33.797,3.942 -47.307,11.818c-13.519,8.451 -23.653,19.72 -30.98,33.797c-7.318,14.644 -11.269,31.538 -11.269,50.691c0,19.144 3.951,36.047 11.269,50.691c7.326,14.077 17.461,25.345 30.98,33.23c13.51,7.876 28.721,11.818 47.307,11.818c18.019,0 33.788,-3.942 47.307,-11.818c12.952,-7.884 23.653,-19.153 30.98,-33.23c7.318,-14.644 10.702,-31.547 10.702,-50.691c0,-19.153 -3.384,-36.047 -10.702,-50.691" style="fill:#fff;fill-rule:nonzero;"/><path d="M1399.007,242.891l-8.451,0c-10.702,0 -19.711,2.817 -28.163,8.443c-8.443,6.201 -14.077,14.086 -17.452,25.345l-2.259,0l0,-31.538l-42.24,0l0,186.428l43.932,0l0,-109.266c0,-7.884 1.692,-15.202 5.067,-21.403c3.942,-5.634 9.01,-10.702 15.211,-14.077c6.192,-3.384 13.51,-5.067 21.403,-5.067c3.942,0 7.884,0 11.827,0.558c3.942,0.567 6.759,1.125 8.443,1.692l0,-39.989c-1.683,-0.558 -4.5,-0.558 -7.318,-1.125" style="fill:#fff;fill-rule:nonzero;"/><path d="M1454.2,320.614c0.567,-6.759 2.25,-14.077 5.634,-20.278c3.942,-6.759 9.01,-12.385 15.769,-16.894c6.759,-3.942 14.644,-6.192 23.653,-6.192c8.451,0 15.769,1.692 21.961,5.626c6.759,3.942 11.827,9.018 15.211,15.778c3.384,6.192 5.067,14.077 5.067,21.961l-87.296,0Zm129.536,16.336c0,-16.336 -2.25,-30.413 -6.759,-42.248c-4.5,-11.827 -10.702,-21.395 -18.586,-29.288c-7.884,-7.318 -16.894,-13.51 -27.029,-16.894c-10.143,-3.942 -21.403,-5.626 -32.672,-5.626c-18.019,0 -33.221,3.942 -46.182,12.385c-13.519,7.884 -23.653,19.153 -30.971,33.797c-7.326,14.635 -10.702,31.538 -10.702,50.682c0,19.153 3.375,36.047 10.702,50.691c7.318,14.086 17.452,25.345 30.971,33.23c13.519,7.884 29.855,11.269 48.441,11.269c14.635,0 27.596,-2.259 38.864,-6.201c11.26,-4.5 20.269,-10.702 27.596,-18.586c7.318,-8.443 11.818,-17.461 14.644,-28.721l-41.123,-4.5c-1.683,5.059 -4.5,9.568 -8.443,13.51c-3.942,3.384 -8.451,6.192 -13.519,7.884c-5.067,1.692 -10.702,2.817 -17.461,2.817c-9.577,0 -17.461,-2.25 -24.779,-6.192c-7.318,-3.942 -12.952,-10.143 -16.894,-18.019c-3.384,-7.326 -5.634,-16.336 -5.634,-26.479l129.536,0l0,-13.51Z" style="fill:#fff;fill-rule:nonzero;"/><path d="M1759.459,274.994c-5.067,-10.135 -12.952,-18.019 -22.528,-23.653c-9.577,-5.634 -20.836,-8.451 -33.23,-8.451c-14.077,0 -25.904,3.384 -34.913,9.01c-9.577,6.192 -16.336,14.644 -20.845,25.345l-2.25,0l0,-32.105l-41.681,0l0,186.428l43.932,0l0,-109.266c0,-9.01 1.692,-16.327 5.067,-22.528c3.384,-6.759 7.884,-11.26 13.519,-14.644c6.201,-3.375 12.952,-5.067 20.845,-5.067c11.26,0 19.711,3.375 26.462,10.702c6.201,6.759 9.577,16.336 9.577,29.288l0,111.517l43.932,0l0,-118.276c0,-15.211 -2.817,-27.596 -7.884,-38.297" style="fill:#fff;fill-rule:nonzero;"/><path d="M1932.928,343.704c-8.451,-8.443 -21.403,-14.644 -39.422,-18.586l-31.547,-6.759c-9.568,-1.683 -16.327,-4.5 -20.269,-7.884c-3.942,-3.375 -6.192,-7.884 -6.192,-13.519c0,-6.192 3.375,-11.26 9.568,-15.202c5.634,-3.942 13.519,-6.201 22.528,-6.201c6.759,0 12.961,1.134 17.461,3.384c4.509,2.25 8.451,5.067 11.26,8.451c2.817,3.942 4.509,7.318 5.634,11.827l39.989,-4.509c-2.817,-15.769 -10.702,-28.721 -23.087,-37.73c-12.952,-9.577 -29.855,-14.086 -51.816,-14.086c-14.644,0 -27.604,2.25 -39.422,6.759c-11.269,5.067 -19.72,11.269 -26.479,19.711c-6.192,8.451 -9.568,18.586 -9.01,29.855c-0.558,14.077 3.942,24.779 12.394,33.788c8.443,9.018 21.961,15.211 39.989,19.153l31.538,6.192c8.451,2.25 14.644,4.509 19.153,8.451c3.934,3.375 5.626,7.884 5.626,12.952c0,6.192 -2.817,11.827 -9.01,15.769c-6.759,4.509 -15.202,6.759 -25.345,6.759c-10.135,0 -18.586,-2.25 -24.779,-6.759c-6.192,-3.942 -10.135,-10.702 -12.394,-19.153l-42.806,4.509c2.817,16.894 11.269,30.413 24.787,39.989c14.077,9.568 32.663,14.077 55.191,14.077c15.769,0 29.288,-2.25 41.114,-7.318c12.394,-5.067 21.403,-11.827 28.163,-20.845c6.759,-9.01 10.135,-19.144 10.135,-30.971c0,-13.519 -4.509,-24.22 -12.952,-32.105" style="fill:#fff;fill-rule:nonzero;"/><path d="M1987.296,218.952c-6.951,0 -12.934,-2.346 -17.941,-7.03c-5.006,-4.684 -7.509,-10.3 -7.509,-16.85c0,-6.541 2.503,-12.141 7.509,-16.789c5.006,-4.64 10.989,-6.969 17.941,-6.969c7.03,0 13.03,2.346 18.002,7.03c4.971,4.692 7.457,10.309 7.457,16.85c0,6.541 -2.486,12.141 -7.457,16.789c-4.971,4.649 -10.972,6.969 -18.002,6.969" style="fill:#fff;fill-rule:nonzero;"/><rect x="1965.24" y="245.378" width="43.879" height="186.184" style="fill:#fff;"/><rect x="1013.206" y="504.781" width="43.932" height="247.812" style="fill:#fff;"/><path d="M1192.872,685.571c0,6.759 -1.692,13.519 -5.634,19.153c-3.375,5.626 -8.443,10.702 -14.644,14.077c-6.192,3.384 -14.077,5.067 -23.087,5.067c-9.01,0 -16.336,-2.25 -22.528,-6.192c-5.634,-3.942 -8.451,-10.135 -8.451,-18.028c0,-5.626 1.125,-10.135 4.509,-14.077c2.817,-3.375 6.759,-6.192 11.827,-8.451c5.634,-1.683 11.26,-3.375 18.019,-3.934c2.817,-0.567 6.201,-1.134 10.143,-1.692c3.934,-0.567 7.876,-1.134 11.827,-1.692c3.942,-1.125 7.884,-1.692 10.693,-2.817c3.384,-1.125 5.634,-2.25 7.326,-3.384l0,21.97Zm36.614,-88.421c-4.509,-7.884 -10.143,-14.644 -17.461,-19.711c-7.326,-4.509 -15.211,-7.884 -24.22,-10.143c-9.01,-2.25 -18.019,-2.817 -27.037,-2.817c-12.952,0 -24.779,1.692 -35.48,5.634c-10.702,3.942 -19.711,9.577 -27.037,16.894c-7.318,7.893 -12.952,17.461 -15.769,28.73l40.556,5.626c2.25,-6.192 6.759,-11.818 12.952,-16.894c6.192,-4.509 14.644,-6.759 25.345,-6.759c10.135,0 18.019,2.25 23.087,7.326c5.634,5.067 8.451,12.385 8.451,21.403l0,0.558c0,4.509 -1.692,7.326 -5.067,9.577c-2.817,1.692 -7.884,3.375 -14.644,3.942c-6.759,1.125 -15.769,2.25 -26.471,3.384c-9.01,0.558 -17.461,2.25 -25.904,4.5c-8.451,2.25 -16.336,5.067 -23.095,9.577c-6.759,3.942 -11.827,9.577 -15.769,16.327c-3.942,6.759 -5.634,15.211 -5.634,25.912c0,12.385 2.817,22.528 7.884,30.98c5.634,7.884 12.952,14.077 22.528,18.586c9.577,3.942 19.711,6.192 31.538,6.192c9.577,0 18.019,-1.125 25.345,-3.942c7.318,-2.817 13.519,-6.192 18.019,-10.702c5.076,-4.509 8.451,-9.577 11.269,-14.644l1.692,0l0,25.904l41.673,0l0,-124.468c0,-12.385 -2.25,-22.528 -6.751,-30.971" style="fill:#fff;fill-rule:nonzero;"/><path d="M1391.122,690.642c-3.375,9.01 -8.451,16.336 -14.644,21.395c-6.759,5.076 -14.644,7.893 -24.22,7.893c-9.568,0 -17.461,-2.817 -23.653,-7.893c-6.759,-5.059 -11.827,-11.818 -15.202,-20.836c-3.384,-9.01 -5.076,-19.711 -5.076,-31.538c0,-12.385 1.692,-22.528 5.076,-31.538c3.375,-9.01 8.443,-15.769 14.644,-20.836c6.751,-4.509 14.644,-7.326 24.212,-7.326c9.577,0 17.461,2.817 24.22,7.884c6.759,5.076 11.269,11.827 14.644,20.845c3.375,9.01 5.067,19.144 5.067,30.971c0,11.269 -1.692,21.97 -5.067,30.98m39.422,-83.354c-6.759,-14.086 -15.769,-24.787 -27.596,-32.105c-11.26,-7.326 -24.22,-10.702 -38.864,-10.702c-10.702,0 -19.711,1.692 -27.029,5.067c-6.759,3.942 -12.394,8.451 -16.336,13.519c-4.509,5.067 -7.318,9.577 -9.577,14.077l-1.683,0l0,-92.364l-43.932,0l0,247.812l42.798,0l0,-29.288l2.817,0c2.259,4.509 5.634,9.01 9.577,14.077c4.5,5.076 10.135,9.577 16.894,12.961c7.326,3.375 15.769,5.067 26.471,5.067c14.644,0 27.604,-3.384 39.422,-11.269c11.269,-7.318 20.278,-18.019 27.037,-32.663c6.759,-14.077 10.143,-31.538 10.143,-51.816c0,-20.836 -3.384,-37.73 -10.143,-52.374" style="fill:#fff;fill-rule:nonzero;"/><path d="M1598.946,664.17c-8.451,-7.884 -21.97,-14.077 -39.422,-18.019l-31.547,-6.759c-9.568,-1.692 -16.327,-4.509 -20.269,-7.884c-3.942,-3.384 -6.201,-7.884 -6.201,-13.519c0,-6.192 3.384,-11.269 9.577,-15.202c6.201,-3.951 13.519,-6.201 22.528,-6.201c6.759,0 12.394,1.125 17.461,3.375c4.509,2.259 8.451,5.076 11.26,9.018c2.817,3.375 4.509,7.318 5.634,11.26l39.989,-4.5c-2.817,-15.778 -10.702,-28.163 -23.087,-37.739c-12.961,-9.01 -29.855,-13.519 -51.825,-13.519c-14.635,0 -27.596,2.259 -38.855,6.759c-11.827,4.509 -20.278,11.269 -26.471,19.711c-6.759,8.451 -9.577,18.028 -9.577,29.855c0,13.519 3.942,24.22 12.394,33.23c9.01,9.01 21.961,15.202 39.989,19.144l31.538,6.201c8.443,2.25 14.644,4.5 18.586,7.884c4.5,3.934 6.192,7.884 6.192,13.519c0,6.192 -2.817,11.26 -9.568,15.76c-6.201,4.509 -14.653,6.201 -24.787,6.201c-10.143,0 -18.019,-1.692 -24.779,-6.201c-6.201,-4.5 -10.135,-10.693 -12.394,-19.144l-42.24,4.5c2.25,16.903 10.702,30.422 24.779,39.989c13.519,9.577 32.105,14.086 54.633,14.086c15.769,0 29.288,-2.25 41.114,-7.326c11.827,-5.067 21.403,-12.385 28.163,-20.836c6.759,-9.01 10.135,-19.153 10.135,-30.98c0,-13.51 -4.509,-24.212 -12.952,-32.663" style="fill:#fff;fill-rule:nonzero;"/><path d="M948.789,677.528c0,81.025 -65.658,146.665 -146.665,146.665c-70.236,0 -128.925,-49.33 -143.307,-115.18l-114.56,0c-4.614,6.437 -9.838,12.603 -15.647,18.42c-57.267,57.267 -150.154,57.302 -207.421,0.035c-57.319,-57.328 -57.285,-150.198 0,-207.482c5.791,-5.809 11.966,-11.016 18.394,-15.647l0,-114.552c-65.841,-14.373 -115.18,-73.062 -115.18,-143.316c0,-81.008 65.658,-146.648 146.665,-146.665c81.017,0 146.718,65.658 146.718,146.665c0,21.098 -4.457,41.158 -12.481,59.291c-11.312,25.581 -29.724,47.316 -52.741,62.718c-14.94,9.995 -31.817,17.33 -49.95,21.307l0,88.962c16.563,-2.529 33.474,-2.215 49.95,0.933c17.967,3.419 35.428,10.248 51.354,20.435l48.345,-48.345c-28.232,-44.097 -30.552,-99.995 -6.916,-146.011c6.786,-13.24 15.743,-25.677 26.819,-36.762c57.267,-57.285 150.163,-57.25 207.447,0.035c57.267,57.276 57.267,150.128 0,207.412c-5.704,5.704 -11.774,10.841 -18.124,15.42c-48.851,35.192 -114.43,36.675 -164.667,4.483l-48.327,48.327c12.158,18.952 19.511,40.103 22.049,61.698c1.552,13.161 1.334,26.505 -0.689,39.614l88.962,0c3.079,-14.077 8.181,-27.378 14.993,-39.614c18.656,-33.544 50.054,-59.038 87.68,-69.861c12.9,-3.715 26.54,-5.704 40.635,-5.704c81.008,0 146.665,65.71 146.665,146.718" style="fill:#fff;fill-rule:nonzero;"/></g></svg>

<?xml version="1.0" encoding="UTF-8" standalone="no"?>
<!DOCTYPE svg PUBLIC "-//W3C//DTD SVG 1.1//EN" "http://www.w3.org/Graphics/SVG/1.1/DTD/svg11.dtd">
<svg width="100%" height="100%" viewBox="0 0 1789 725" version="1.1" xmlns="http://www.w3.org/2000/svg" xmlns:xlink="http://www.w3.org/1999/xlink" xml:space="preserve" xmlns:serif="http://www.serif.com/" style="fill-rule:evenodd;clip-rule:evenodd;stroke-linejoin:round;stroke-miterlimit:2;">
    <g transform="matrix(1,0,0,1,-224.403,-99.806)">
        <path d="M1053.958,230.679L1053.958,245.401L1092.491,245.401L1092.491,279.329L1053.958,279.329L1053.958,431.559L1009.913,431.559L1009.913,279.329L982.457,279.329L982.457,245.401L1009.913,245.401L1009.913,227.8C1009.913,215.249 1012.538,204.879 1017.789,196.498C1022.978,188.169 1029.956,181.968 1038.791,177.868C1047.626,173.769 1057.351,171.658 1068.105,171.658C1075.728,171.658 1082.444,172.295 1088.401,173.516C1094.288,174.728 1098.64,175.819 1101.457,176.778L1092.753,210.706C1090.895,210.13 1088.532,209.555 1085.706,208.979C1082.898,208.334 1079.697,208.02 1076.243,208.02C1068.106,208.02 1062.349,210 1058.956,213.907C1055.624,217.814 1053.958,223.449 1053.958,230.679" style="fill:white;fill-rule:nonzero;"/>
        <path d="M1230.606,369.613C1227.789,379.19 1222.722,386.507 1215.962,392.141C1209.203,397.208 1201.318,400.025 1191.183,400.025C1181.04,400.025 1172.597,397.208 1166.404,392.141C1159.645,386.507 1154.577,379.189 1151.193,369.613C1147.818,360.603 1146.126,350.46 1146.126,339.2C1146.126,327.931 1147.818,317.239 1151.193,308.22C1154.577,298.643 1159.644,291.326 1166.404,286.259C1172.596,280.625 1181.039,277.808 1191.183,277.808C1201.318,277.808 1209.202,280.625 1215.962,286.259C1222.721,291.326 1227.789,298.644 1230.606,308.22C1233.981,317.238 1235.673,327.931 1235.673,339.2C1235.673,350.46 1233.981,360.603 1230.606,369.613M1269.47,288.509C1262.144,274.432 1251.442,263.164 1238.49,254.712C1224.971,246.836 1209.202,242.894 1191.183,242.894C1172.597,242.894 1157.386,246.836 1143.876,254.712C1130.357,263.163 1120.223,274.432 1112.896,288.509C1105.578,303.153 1101.627,320.047 1101.627,339.2C1101.627,358.344 1105.578,375.247 1112.896,389.891C1120.222,403.968 1130.357,415.236 1143.876,423.121C1157.386,430.997 1172.597,434.939 1191.183,434.939C1209.202,434.939 1224.971,430.997 1238.49,423.121C1251.442,415.237 1262.143,403.968 1269.47,389.891C1276.788,375.247 1280.172,358.344 1280.172,339.2C1280.172,320.047 1276.788,303.153 1269.47,288.509" style="fill:white;fill-rule:nonzero;"/>
        <path d="M1399.007,242.891L1390.556,242.891C1379.854,242.891 1370.845,245.708 1362.393,251.334C1353.95,257.535 1348.316,265.42 1344.941,276.679L1342.682,276.679L1342.682,245.141L1300.442,245.141L1300.442,431.569L1344.374,431.569L1344.374,322.303C1344.374,314.419 1346.066,307.101 1349.441,300.9C1353.383,295.266 1358.451,290.198 1364.652,286.823C1370.844,283.439 1378.162,281.756 1386.055,281.756C1389.997,281.756 1393.939,281.756 1397.882,282.314C1401.824,282.881 1404.641,283.439 1406.325,284.006L1406.325,244.017C1404.642,243.459 1401.825,243.459 1399.007,242.892" style="fill:white;fill-rule:nonzero;"/>
        <path d="M1454.2,320.614C1454.767,313.855 1456.45,306.537 1459.834,300.336C1463.776,293.577 1468.844,287.951 1475.603,283.442C1482.362,279.5 1490.247,277.25 1499.256,277.25C1507.707,277.25 1515.025,278.942 1521.217,282.876C1527.976,286.818 1533.044,291.894 1536.428,298.654C1539.812,304.846 1541.495,312.731 1541.495,320.615L1454.199,320.615L1454.2,320.614ZM1583.736,336.95C1583.736,320.614 1581.486,306.537 1576.977,294.702C1572.477,282.875 1566.275,273.307 1558.391,265.414C1550.507,258.096 1541.497,251.904 1531.362,248.52C1521.219,244.578 1509.959,242.894 1498.69,242.894C1480.671,242.894 1465.469,246.836 1452.508,255.279C1438.989,263.163 1428.855,274.432 1421.537,289.076C1414.211,303.711 1410.835,320.614 1410.835,339.758C1410.835,358.911 1414.21,375.805 1421.537,390.449C1428.855,404.535 1438.989,415.794 1452.508,423.679C1466.027,431.563 1482.363,434.948 1500.949,434.948C1515.584,434.948 1528.545,432.689 1539.813,428.747C1551.073,424.247 1560.082,418.045 1567.409,410.161C1574.727,401.718 1579.227,392.7 1582.053,381.44L1540.93,376.94C1539.247,381.999 1536.43,386.508 1532.487,390.45C1528.545,393.834 1524.036,396.642 1518.968,398.334C1513.901,400.026 1508.266,401.151 1501.507,401.151C1491.93,401.151 1484.046,398.901 1476.728,394.959C1469.41,391.017 1463.776,384.816 1459.834,376.94C1456.45,369.614 1454.2,360.604 1454.2,350.461L1583.736,350.461L1583.736,336.95Z" style="fill:white;fill-rule:nonzero;"/>
        <path d="M1759.459,274.994C1754.392,264.859 1746.507,256.975 1736.931,251.341C1727.354,245.707 1716.095,242.89 1703.701,242.89C1689.624,242.89 1677.797,246.274 1668.788,251.9C1659.211,258.092 1652.452,266.544 1647.943,277.245L1645.693,277.245L1645.693,245.14L1604.012,245.14L1604.012,431.568L1647.944,431.568L1647.944,322.302C1647.944,313.292 1649.636,305.975 1653.011,299.774C1656.395,293.015 1660.895,288.514 1666.53,285.13C1672.731,281.755 1679.482,280.063 1687.375,280.063C1698.635,280.063 1707.086,283.438 1713.837,290.765C1720.038,297.524 1723.414,307.101 1723.414,320.053L1723.414,431.57L1767.346,431.57L1767.346,313.294C1767.346,298.083 1764.529,285.698 1759.462,274.997" style="fill:white;fill-rule:nonzero;"/>
        <path d="M1932.928,343.704C1924.477,335.261 1911.525,329.06 1893.506,325.118L1861.959,318.359C1852.391,316.676 1845.632,313.859 1841.69,310.475C1837.748,307.1 1835.498,302.591 1835.498,296.956C1835.498,290.764 1838.873,285.696 1845.066,281.754C1850.7,277.812 1858.585,275.553 1867.594,275.553C1874.353,275.553 1880.555,276.687 1885.055,278.937C1889.564,281.187 1893.506,284.004 1896.315,287.388C1899.132,291.33 1900.824,294.706 1901.949,299.215L1941.938,294.706C1939.121,278.937 1931.236,265.985 1918.851,256.976C1905.899,247.399 1888.996,242.89 1867.035,242.89C1852.391,242.89 1839.431,245.14 1827.613,249.649C1816.344,254.716 1807.893,260.918 1801.134,269.36C1794.942,277.811 1791.566,287.946 1792.124,299.215C1791.566,313.292 1796.066,323.994 1804.518,333.003C1812.961,342.021 1826.479,348.214 1844.507,352.156L1876.045,358.348C1884.496,360.598 1890.689,362.857 1895.198,366.799C1899.132,370.174 1900.824,374.683 1900.824,379.751C1900.824,385.943 1898.007,391.578 1891.814,395.52C1885.055,400.029 1876.612,402.279 1866.469,402.279C1856.334,402.279 1847.883,400.029 1841.69,395.52C1835.498,391.578 1831.555,384.818 1829.296,376.367L1786.49,380.876C1789.307,397.77 1797.759,411.289 1811.277,420.865C1825.354,430.433 1843.94,434.942 1866.468,434.942C1882.237,434.942 1895.756,432.692 1907.582,427.624C1919.976,422.557 1928.985,415.797 1935.745,406.779C1942.504,397.769 1945.88,387.635 1945.88,375.808C1945.88,362.289 1941.371,351.588 1932.928,343.703" style="fill:white;fill-rule:nonzero;"/>
        <path d="M1987.296,218.952C1980.345,218.952 1974.362,216.606 1969.355,211.922C1964.349,207.238 1961.846,201.622 1961.846,195.072C1961.846,188.531 1964.349,182.931 1969.355,178.283C1974.361,173.643 1980.344,171.314 1987.296,171.314C1994.326,171.314 2000.326,173.66 2005.298,178.344C2010.269,183.036 2012.755,188.653 2012.755,195.194C2012.755,201.735 2010.269,207.335 2005.298,211.983C2000.327,216.632 1994.326,218.952 1987.296,218.952" style="fill:white;fill-rule:nonzero;"/>
        <rect x="1965.24" y="245.378" width="43.879" height="186.184" style="fill:white;"/>
        <rect x="1013.206" y="504.781" width="43.932" height="247.812" style="fill:white;"/>
        <path d="M1192.872,685.571C1192.872,692.33 1191.18,699.09 1187.238,704.724C1183.863,710.35 1178.795,715.426 1172.594,718.801C1166.402,722.185 1158.517,723.868 1149.507,723.868C1140.497,723.868 1133.171,721.618 1126.979,717.676C1121.345,713.734 1118.528,707.541 1118.528,699.648C1118.528,694.022 1119.653,689.513 1123.037,685.571C1125.854,682.196 1129.796,679.379 1134.864,677.12C1140.498,675.437 1146.124,673.745 1152.883,673.186C1155.7,672.619 1159.084,672.052 1163.026,671.494C1166.96,670.927 1170.902,670.36 1174.853,669.802C1178.795,668.677 1182.737,668.11 1185.546,666.985C1188.93,665.86 1191.18,664.735 1192.872,663.601L1192.872,685.571ZM1229.486,597.15C1224.977,589.266 1219.343,582.506 1212.025,577.439C1204.699,572.93 1196.814,569.555 1187.805,567.296C1178.795,565.046 1169.786,564.479 1160.768,564.479C1147.816,564.479 1135.989,566.171 1125.288,570.113C1114.586,574.055 1105.577,579.69 1098.251,587.007C1090.933,594.9 1085.299,604.468 1082.482,615.737L1123.038,621.363C1125.288,615.171 1129.797,609.545 1135.99,604.469C1142.182,599.96 1150.634,597.71 1161.335,597.71C1171.47,597.71 1179.354,599.96 1184.422,605.036C1190.056,610.103 1192.873,617.421 1192.873,626.439L1192.873,626.997C1192.873,631.506 1191.181,634.323 1187.806,636.574C1184.989,638.266 1179.922,639.949 1173.162,640.516C1166.403,641.641 1157.393,642.766 1146.691,643.9C1137.681,644.458 1129.23,646.15 1120.787,648.4C1112.336,650.65 1104.451,653.467 1097.692,657.977C1090.933,661.919 1085.865,667.554 1081.923,674.304C1077.981,681.063 1076.289,689.515 1076.289,700.216C1076.289,712.601 1079.106,722.744 1084.173,731.196C1089.807,739.08 1097.125,745.273 1106.701,749.782C1116.278,753.724 1126.412,755.974 1138.239,755.974C1147.816,755.974 1156.258,754.849 1163.584,752.032C1170.902,749.215 1177.103,745.84 1181.603,741.33C1186.679,736.821 1190.054,731.753 1192.872,726.686L1194.564,726.686L1194.564,752.59L1236.237,752.59L1236.237,628.122C1236.237,615.737 1233.987,605.594 1229.486,597.151" style="fill:white;fill-rule:nonzero;"/>
        <path d="M1391.122,690.642C1387.747,699.652 1382.671,706.978 1376.478,712.037C1369.719,717.113 1361.834,719.93 1352.258,719.93C1342.69,719.93 1334.797,717.113 1328.605,712.037C1321.846,706.978 1316.778,700.219 1313.403,691.201C1310.019,682.191 1308.327,671.49 1308.327,659.663C1308.327,647.278 1310.019,637.135 1313.403,628.125C1316.778,619.115 1321.846,612.356 1328.047,607.289C1334.798,602.78 1342.691,599.963 1352.259,599.963C1361.836,599.963 1369.72,602.78 1376.479,607.847C1383.238,612.923 1387.748,619.674 1391.123,628.692C1394.498,637.702 1396.19,647.836 1396.19,659.663C1396.19,670.932 1394.498,681.633 1391.123,690.643M1430.545,607.289C1423.786,593.203 1414.776,582.502 1402.949,575.184C1391.689,567.858 1378.729,564.482 1364.085,564.482C1353.383,564.482 1344.374,566.174 1337.056,569.549C1330.297,573.491 1324.662,578 1320.72,583.068C1316.211,588.135 1313.402,592.645 1311.143,597.145L1309.46,597.145L1309.46,504.781L1265.528,504.781L1265.528,752.593L1308.326,752.593L1308.326,723.305L1311.143,723.305C1313.402,727.814 1316.777,732.315 1320.72,737.382C1325.22,742.458 1330.855,746.959 1337.614,750.343C1344.94,753.718 1353.383,755.41 1364.085,755.41C1378.729,755.41 1391.689,752.026 1403.507,744.141C1414.776,736.823 1423.785,726.122 1430.544,711.478C1437.303,697.401 1440.687,679.94 1440.687,659.662C1440.687,638.826 1437.303,621.932 1430.544,607.288" style="fill:white;fill-rule:nonzero;"/>
        <path d="M1598.946,664.17C1590.495,656.286 1576.976,650.093 1559.524,646.151L1527.977,639.392C1518.409,637.7 1511.65,634.883 1507.708,631.508C1503.766,628.124 1501.507,623.624 1501.507,617.989C1501.507,611.797 1504.891,606.72 1511.084,602.787C1517.285,598.836 1524.603,596.586 1533.612,596.586C1540.371,596.586 1546.006,597.711 1551.073,599.961C1555.582,602.22 1559.524,605.037 1562.333,608.979C1565.15,612.354 1566.842,616.297 1567.967,620.239L1607.956,615.739C1605.139,599.961 1597.254,587.576 1584.869,578C1571.908,568.99 1555.014,564.481 1533.044,564.481C1518.409,564.481 1505.448,566.74 1494.189,571.24C1482.362,575.749 1473.911,582.509 1467.718,590.951C1460.959,599.402 1458.141,608.979 1458.141,620.806C1458.141,634.325 1462.083,645.026 1470.535,654.036C1479.545,663.046 1492.496,669.238 1510.524,673.18L1542.062,679.381C1550.505,681.631 1556.706,683.881 1560.648,687.265C1565.148,691.199 1566.84,695.149 1566.84,700.784C1566.84,706.976 1564.023,712.044 1557.272,716.544C1551.071,721.053 1542.619,722.745 1532.485,722.745C1522.342,722.745 1514.466,721.053 1507.706,716.544C1501.505,712.044 1497.571,705.851 1495.312,697.4L1453.072,701.9C1455.322,718.803 1463.774,732.322 1477.851,741.889C1491.37,751.466 1509.956,755.975 1532.484,755.975C1548.253,755.975 1561.772,753.725 1573.598,748.649C1585.425,743.582 1595.001,736.264 1601.761,727.813C1608.52,718.803 1611.896,708.66 1611.896,696.833C1611.896,683.323 1607.387,672.621 1598.944,664.17" style="fill:white;fill-rule:nonzero;"/>
        <path d="M948.789,677.528C948.789,758.553 883.131,824.193 802.124,824.193C731.888,824.193 673.199,774.863 658.817,709.013L544.257,709.013C539.643,715.45 534.419,721.616 528.61,727.433C471.343,784.7 378.456,784.735 321.189,727.468C263.87,670.14 263.904,577.27 321.189,519.986C326.98,514.177 333.155,508.97 339.583,504.339L339.583,389.787C273.742,375.414 224.403,316.725 224.403,246.471C224.403,165.463 290.061,99.823 371.068,99.806C452.085,99.806 517.786,165.464 517.786,246.471C517.786,267.569 513.329,287.629 505.305,305.762C493.993,331.343 475.581,353.078 452.564,368.48C437.624,378.475 420.747,385.81 402.614,389.787L402.614,478.749C419.177,476.22 436.088,476.534 452.564,479.682C470.531,483.101 487.992,489.93 503.918,500.117L552.263,451.772C524.031,407.675 521.711,351.777 545.347,305.761C552.133,292.521 561.09,280.084 572.166,268.999C629.433,211.714 722.329,211.749 779.613,269.034C836.88,326.31 836.88,419.162 779.613,476.446C773.909,482.15 767.839,487.287 761.489,491.866C712.638,527.058 647.059,528.541 596.822,496.349L548.495,544.676C560.653,563.628 568.006,584.779 570.544,606.374C572.096,619.535 571.878,632.879 569.855,645.988L658.817,645.988C661.896,631.911 666.998,618.61 673.81,606.374C692.466,572.83 723.864,547.336 761.49,536.513C774.39,532.798 788.03,530.809 802.125,530.809C883.133,530.809 948.79,596.519 948.79,677.527" style="fill:white;fill-rule:nonzero;"/>
    </g>
</svg>
